app/assets/images/heroicons/micro/video-camera.svg

<svg width="16" height="16" viewBox="0 0 16 16" fill="none" xmlns="http://www.w3.org/2000/svg">
<path d="M3 4C1.89543 4 1 4.89543 1 6V10C1 11.1046 1.89543 12 3 12H8C9.10457 12 10 11.1046 10 10V6C10 4.89543 9.10457 4 8 4H3Z" fill="black"/>
<path d="M15 4.75002C15 4.44668 14.8173 4.1732 14.537 4.05711C14.2568 3.94103 13.9342 4.00519 13.7197 4.21969L11.7197 6.21969C11.579 6.36034 11.5 6.55111 11.5 6.75002V9.25002C11.5 9.44893 11.579 9.6397 11.7197 9.78035L13.7197 11.7804C13.9342 11.9949 14.2568 12.059 14.537 11.9429C14.8173 11.8268 15 11.5534 15 11.25V4.75002Z" fill="black"/>
</svg>

<svg xmlns="http://www.w3.org/2000/svg" viewBox="0 0 16 16" fill="currentColor" aria-hidden="true" data-slot="icon">
  <path d="M3 4a2 2 0 0 0-2 2v4a2 2 0 0 0 2 2h5a2 2 0 0 0 2-2V6a2 2 0 0 0-2-2H3ZM15 4.75a.75.75 0 0 0-1.28-.53l-2 2a.75.75 0 0 0-.22.53v2.5c0 .199.079.39.22.53l2 2a.75.75 0 0 0 1.28-.53v-6.5Z"/>
</svg>
